img/popup-vote.svg

<svg width="24" height="22" viewBox="0 0 24 22" fill="none" xmlns="http://www.w3.org/2000/svg">
<g clip-path="url(#clip0)">
<path d="M22.7755 10.754C22.7755 9.62175 21.8177 8.6995 20.6437 8.6995H15.8698C16.1604 7.85425 16.6161 6.27663 16.6161 4.66663C16.6161 2.93413 15.8181 1.40988 14.5843 0.78425C13.7544 0.363375 12.8429 0.412375 12.0857 0.914625C11.9576 1.00038 11.8804 1.14125 11.8804 1.29088V3.75313C11.8804 5.37713 10.682 6.624 9.41085 7.94525C8.94146 8.4335 8.47025 8.92963 8.05078 9.45025V20.4998C8.59735 20.8261 9.26196 21.0248 9.98557 21.0248H19.0086C20.0526 21.0248 20.9043 20.2058 20.9043 19.1986C20.9043 18.8136 20.7772 18.4479 20.5547 18.146C21.1549 17.782 21.5426 17.1424 21.5426 16.4144C21.5426 16.0504 21.44 15.6943 21.2503 15.3836C21.8358 15.0109 22.2072 14.3756 22.2072 13.6748C22.2072 13.2355 22.0637 12.8181 21.8041 12.4751C22.3942 12.1076 22.7755 11.4671 22.7755 10.754Z" fill="white"/>
<path d="M6.19692 8.7168H1.93421C1.41033 8.7168 0.986328 9.12542 0.986328 9.6303V20.587C0.986328 21.091 1.41033 21.4997 1.93421 21.4997H6.19692C6.71989 21.4997 7.14389 21.091 7.14389 20.587V9.6303C7.14389 9.12542 6.71989 8.7168 6.19692 8.7168ZM4.87408 20.1872C4.3729 20.1872 3.96615 19.7952 3.96615 19.3122C3.96615 18.8292 4.3729 18.4372 4.87408 18.4372C5.37525 18.4372 5.782 18.8292 5.782 19.3122C5.782 19.7952 5.37525 20.1872 4.87408 20.1872Z" fill="white"/>
</g>
<defs>
<clipPath id="clip0">
<rect width="22.3889" height="22" fill="white" transform="translate(0.863281)"/>
</clipPath>
</defs>
</svg>

<svg width="24" height="22" fill="none" xmlns="http://www.w3.org/2000/svg"><g clip-path="url(#clip0)" fill="#fff"><path d="M22.776 10.754c0-1.132-.958-2.054-2.132-2.054H15.87c.29-.846.746-2.423.746-4.033 0-1.733-.798-3.257-2.032-3.883-.83-.42-1.741-.372-2.498.13a.455.455 0 00-.206.377v2.462c0 1.624-1.198 2.871-2.47 4.192-.469.489-.94.985-1.36 1.505V20.5a3.772 3.772 0 001.936.525h9.023c1.044 0 1.895-.82 1.895-1.826a1.77 1.77 0 00-.35-1.053 2.02 2.02 0 00.989-1.732c0-.364-.103-.72-.293-1.03a2.03 2.03 0 00.957-1.71 1.98 1.98 0 00-.403-1.199c.59-.367.972-1.008.972-1.721zM6.197 8.717H1.934c-.524 0-.948.408-.948.913v10.957c0 .504.424.913.948.913h4.263c.523 0 .947-.409.947-.913V9.63c0-.505-.424-.913-.947-.913zm-1.323 11.47c-.501 0-.908-.392-.908-.875s.407-.875.908-.875c.501 0 .908.392.908.875s-.407.875-.908.875z"/></g><defs><clipPath id="clip0"><path fill="#fff" transform="translate(.863)" d="M0 0h22.389v22H0z"/></clipPath></defs></svg>
